X: 23148
T: Le 24 Juin
R: reel
M: 4/4
K: Gminor
|:G^FGA BABc|d^cde dcBA|G^FGA BABc|d^cde d3d|dccB c3c|
cBBA B4|1 A2 ^GA BAGA|dDcD BDAD:|2 A2 ^GA dcBA|G^BA^F G2 A2||
K:Gmaj
B3B ABBA|GABG E2DB,|G,B,DG BBGB|ABcA E2AB|
c2ec B2dB|ABcA BAFE|DEFG ABcd|efge dcBA|
B3B ABBA|GABG E2DB,|G,B,DG BBGB|ABcA E2AB|
c2ec B2dB|ABcA F3e|fedc BcAF|G_BAF G4||

